images/svg/twitter-icon.svg

<svg width="24" height="20" viewBox="0 0 24 20" fill="none" xmlns="http://www.w3.org/2000/svg">
<g id="akar-icons_twitter-fill">
<path id="Path" d="M23.4924 2.70559C22.6363 3.08495 21.7166 3.34128 20.7497 3.45713C21.7474 2.8602 22.4937 1.92069 22.8495 0.813926C21.9122 1.37065 20.8864 1.76253 19.8167 1.97251C19.0973 1.20443 18.1445 0.69532 17.1061 0.524252C16.0678 0.353184 15.002 0.529703 14.0743 1.02642C13.1465 1.52314 12.4087 2.31225 11.9754 3.27125C11.5421 4.23025 11.4375 5.30548 11.6779 6.33C9.77873 6.23465 7.92084 5.74102 6.22479 4.88116C4.52875 4.02131 3.03246 2.81444 1.83302 1.33888C1.42291 2.04633 1.18709 2.86656 1.18709 3.74011C1.18663 4.52652 1.38029 5.30086 1.75087 5.99446C2.12147 6.68806 2.65753 7.27947 3.3115 7.7162C2.55306 7.69207 1.81137 7.48714 1.14813 7.11846V7.17998C1.14805 8.28293 1.52957 9.35193 2.22795 10.2056C2.92633 11.0593 3.89855 11.645 4.97965 11.8635C4.27608 12.0539 3.53844 12.0819 2.82243 11.9455C3.12745 12.8946 3.72161 13.7244 4.52172 14.3191C5.32183 14.9136 6.28785 15.2431 7.28452 15.2613C5.59261 16.5896 3.50311 17.3099 1.35216 17.3067C0.971148 17.3069 0.590452 17.2846 0.212036 17.2402C2.39538 18.644 4.93694 19.389 7.53263 19.386C16.3194 19.386 21.123 12.1085 21.123 5.79685C21.123 5.59179 21.1178 5.38469 21.1086 5.17962C22.0429 4.50393 22.8494 3.66721 23.4903 2.70867L23.4924 2.70559Z" fill="white"/>
</g>
</svg>

<svg xmlns="http://www.w3.org/2000/svg" width="24" height="20" fill="none"><path fill="#fff" d="M23.492 2.706a9.564 9.564 0 0 1-2.742.751 4.788 4.788 0 0 0 2.1-2.643 9.536 9.536 0 0 1-3.033 1.159 4.778 4.778 0 0 0-8.14 4.357 13.563 13.563 0 0 1-9.844-4.991 4.774 4.774 0 0 0-.646 2.401 4.778 4.778 0 0 0 2.125 3.976 4.764 4.764 0 0 1-2.164-.598v.062a4.778 4.778 0 0 0 3.832 4.684 4.811 4.811 0 0 1-2.158.081 4.78 4.78 0 0 0 4.463 3.316 9.583 9.583 0 0 1-5.933 2.046 9.74 9.74 0 0 1-1.14-.067 13.507 13.507 0 0 0 7.32 2.146c8.787 0 13.591-7.277 13.591-13.59 0-.204-.005-.411-.014-.616a9.71 9.71 0 0 0 2.381-2.471l.002-.003Z"/></svg>
